X: 33043
T: Pride Of Petravore, The
R: hornpipe
M: 4/4
K: Eminor
B,2|:E3F G3A|B>cBA GFE2|D3E F3G|A>BAG FED2|
E3F G3A|B>cBA GFGA|B2Bc B>AG>F|1 E2FD E2B,D:|2 E2FD E2B/c/d||
|:e2e2 e2e2|d>BG>A B2Bc|B>AFG A2AB|A>GFG E2 B/c/d|
e2ef gfge|d>BG>A B2GA|B2Bc B>AFG|1 E2FD E2 B/c/d:|2 E2FD E2B,D||

